X: 5634
T: Butterfly, The
R: slip jig
M: 9/8
K: Eminor
|:B3 G3 F3|B3 G3 E3|B3 G3 F3|B3 d3 F3:|
|:B3 e3 g3|B3 g3 A3|B3 e3 g3|b3 g3 A3:|
|:B3 B3 G3|B3 B3 d3|B3 B3 G3|B3 g3 A3:|

